X:1
T:Everlasting Love
T:Everlasting Love
T:Phoebe Palmer Knapp
T:Mary Dagworthy James, 1878
T:Public Domain Courtesy of the Cyber Hymnal™
T:Public Domain Courtesy of the Cyber Hymnal™
C:Phoebe Palmer Knapp
Z:Public Domain
Z:Courtesy of the Cyber Hymnal™
%%score ( 1 2 ) ( 3 4 )
L:1/8
Q:1/4=95
M:3/4
K:G
V:1 treble 
V:2 treble 
V:3 bass 
V:4 bass 
V:1
 D>D | [DG]3 [DF] [DA]>[DG] | [DB]2 [DB] z [DB]>[DB] | [^CB]3 [CA] [CG][CE] | [DA]4 [DB]>[CA] | %5
w: 1.~Won- drous|words! how rich in|bless- ing! Deep- er|than th’un- fa- thomed|sea; Broad- er|
w: 2.~Down to|low- est depths it|reach- es— The all-|lov- ing Fa- ther’s|arm, Toward His|
w: 3.~Wea- ry|spir- its— sad with|toil- ing, ’Mid the|sor- rows of life’s|way— Feel their|
w: 4.~I have|set thee as a|sig- net, Gra- ven|on My hands thy|name; Lo, I|
w: 5.~In My|house of ma- ny|man- sions, I’ve pre-|pared a place for|thee, Where are|
 [B,G]3 [B,G] [DB][=Fd] | [=Fc]2 [Ec]2 [EB]>[EA] | [DG]3 [DG] [DF][FA] | G4 [FA]>[FA] | %9
w: than its world of|wa- ters, Bound- less,|in- fi- nite and|free. High- er|
w: re- bel child- ren|yearn- ing, Draw- ing|them with ma- gic|charm. Till the|
w: hea- vy bur- dens|light- ened, As they|jour- ney day by|day. How with|
w: still am with thee|al- ways, E- ver-|more thy friend— the|same; Ne- ver|
w: no dark clouds or|tem- pests, Where I|am, there thou shalt|be— All the|
 [FA]3 [GB] [FA]>[EG] | [DF]4 [DA][DA] | [EA][EG] [DF]2 [^CE]2 | D4 [B,D]>[B,D] | %13
w: than the heav’ns a-|bove, Is that|ev- er- last- ing|love! High- er|
w: yield- ing spir- its|move, Touched by|ev- er- last- ing|love; Till the|
w: quick- ened steps they|move, Cheered by|ev- er- last- ing|love; How with|
w: chang- ing— thou wilt|prove Mine is|ev- er- last- ing|love; Ne- ver|
w: un- told bliss to|prove, Of My|ev- er- last- ing|love; All the|
 [A,C]3 [B,D] [DB]>[CA] | [B,G]4 [DB][=Fd] | [=Fd][Ec] E2 [D^F]2 | [DG]4 |] %17
w: than the heav’ns a-|bove, Is that|ev- er- last- ing|love!|
w: yield- ing spir- its|move, Touched by|ev- er- last- ing|love.|
w: quick- ened steps they|move, Cheered by|ev- er- last- ing|love.|
w: chang- ing— thou wilt|prove Mine is|ev- er- last- ing|love.|
w: un- told bliss to|prove, Of My|ev- er- last- ing|love.|
V:2
 D>D | x6 | x6 | x6 | x6 | x6 | x6 | x6 | G4 x2 | x6 | x6 | x6 | D4 x2 | x6 | x6 | x2 E2 x2 | x4 |] %17
V:3
 [G,B,]>[G,B,] | [G,B,]3 [A,C] [F,C]>[G,B,] | [G,D]2 [G,D] z G,>G, | %3
 [E,G,]3 [A,,E,] [A,,A,][G,A,] | [F,A,]4 [D,G,]>[D,F,] | [G,,G,]3 [G,,G,] [G,,G,][G,,B,] | %6
 [C,G,]2 [C,G,]2 [C,D]>[C,C] | [D,B,]3 [D,B,] [D,A,][D,C] | [G,,B,]4 [D,D]>[D,D] | %9
 [D,D]3 [D,D] [D,D]>[D,A,] | [D,A,]4 [D,F,][F,A,] | [G,B,][G,B,] A,2 [A,,G,]2 | [D,F,]4 [D,G,]>D, | %13
 [D,F,]3 D, [D,G,]>[D,F,] | [G,,G,]4 G,[G,B,] | [C,G,][C,G,] [B,,G,]2 [D,C]2 | [G,B,]4 |] %17
V:4
 x2 | x6 | x4 G,>G, | x6 | x6 | x6 | x6 | x6 | x6 | x6 | x6 | x2 A,2 x2 | x11/2 D,/ | x3 D, x2 | %14
 x4 G, x | x6 | x4 |] %17

